public/formular-icons/greece/upper-epsilon.svg

<svg style="vertical-align:0" xmlns="http://www.w3.org/2000/svg" width="1.729ex" height="1.538ex" viewBox="0 -680 764 680" xmlns:xlink="http://www.w3.org/1999/xlink"><defs><path id="a" d="M492 213q-20 0-20 13 0 4 5 24t5 35q0 31-21 38t-97 7h-52q-1-2-35-138T243 52q0-4 11-4t80-2q94 0 124 2t60 13q49 16 81 56t71 131q10 22 13 24 7 2 15 2 20 0 20-13Q613 7 608 2q-3-2-286-2H133Q31 0 31 11q0 2 3 14 4 16 8 18t23 3q27 0 60 3 14 3 19 12 2 5 71 281t70 280q0 7-4 7-8 3-53 5h-31q-6 6-6 8t2 17q4 17 10 21h554q7-4 7-11 0-5-13-112t-14-110q-2-7-20-7h-12q-7 5-7 13l3 23q3 24 3 52 0 30-7 50t-19 31-35 16-47 7-64 2h-47q-88-1-93-3-4-2-6-9-1-3-31-123t-31-122q23-1 48-1h26q66 0 91 15t45 81q4 16 6 18t17 3h8q3 0 5-1t2-1 2-4 3-4l-33-132q-33-133-36-135-3-3-16-3Z"/></defs><g stroke="currentColor" fill="currentColor" stroke-width="0"><use data-c="1D438" xlink:href="#a" transform="scale(1 -1)"/></g></svg>

<svg style="vertical-align: 0" xmlns="http://www.w3.org/2000/svg" width="1.729ex" height="1.538ex" role="img" focusable="false" viewBox="0 -680 764 680" xmlns:xlink="http://www.w3.org/1999/xlink"><defs><path id="MJX-94-TEX-I-1D438" d="M492 213Q472 213 472 226Q472 230 477 250T482 285Q482 316 461 323T364 330H312Q311 328 277 192T243 52Q243 48 254 48T334 46Q428 46 458 48T518 61Q567 77 599 117T670 248Q680 270 683 272Q690 274 698 274Q718 274 718 261Q613 7 608 2Q605 0 322 0H133Q31 0 31 11Q31 13 34 25Q38 41 42 43T65 46Q92 46 125 49Q139 52 144 61Q146 66 215 342T285 622Q285 629 281 629Q273 632 228 634H197Q191 640 191 642T193 659Q197 676 203 680H757Q764 676 764 669Q764 664 751 557T737 447Q735 440 717 440H705Q698 445 698 453L701 476Q704 500 704 528Q704 558 697 578T678 609T643 625T596 632T532 634H485Q397 633 392 631Q388 629 386 622Q385 619 355 499T324 377Q347 376 372 376H398Q464 376 489 391T534 472Q538 488 540 490T557 493Q562 493 565 493T570 492T572 491T574 487T577 483L544 351Q511 218 508 216Q505 213 492 213Z"></path></defs><g stroke="currentColor" fill="currentColor" stroke-width="0" transform="scale(1,-1)"><g data-mml-node="math"><g data-mml-node="mi"><use data-c="1D438" xlink:href="#MJX-94-TEX-I-1D438"></use></g></g></g></svg>
